X:18433
T:Waltz,5. TLY.076
M:3/4
L:1/8
Q:120
S:Wm.Tildesley,Swinton,Lancs.1860s.
R:Waltz
O:England.
A:Lancashire.
N:triplets are not marked after first bar in C part but simil
H:1860.
Z:vmp.Taz Tarry.
K:B_
F2| B3 cdc| Bb B2 cB| AcFAcA| Bd F2F2|B3  cdc| Bb B2 cB| AcFAcA|B4:|!
|:B2|ABcdec|dfedcB|ABcdeB|df F2B2|ABcdec|dfedcB|ABcdeB B4:|!
|:F2| (3BcB (3ded (3 fgf| bfd Bdf bfd|ecA FAc ecA| Bdf ecA FAc|!
 BcB ded fgf| bfd Bdf bfd|ecA FAc ecA| Bdf ecA FAc|B4:|!
|:f2|=efgf_ec| c2-f2 B2|ABcdec| d2-B2 f2| =efgf_ec| c2-f2 B2|ABcdec| B2
 B,2 :|]
